icons/panel-maximize.svg

<svg xmlns="http://www.w3.org/2000/svg" viewBox="0 0 512 512"><path fill-rule="evenodd" d="M248.5 137.437c-1.65.748-39.081 37.517-83.18 81.711-86.138 86.323-82.815 82.6-80.869 90.595 2.41 9.904 13.795 16.231 21.865 12.153 1.201-.607 35.144-34.015 75.427-74.241l73.244-73.137 74.256 74.17c65.065 64.989 74.712 74.253 77.929 74.838 5.234.951 9.439-.246 13.551-3.856 5.921-5.198 7.894-12.727 4.841-18.47-2.242-4.218-161.699-162.973-164.879-164.154-3.793-1.409-8.548-1.256-12.185.391"/></svg>

<svg xmlns="http://www.w3.org/2000/svg" width="512" height="512" viewBox="0 0 512 512" version="1.1">
	<path d="M 248.500 137.437 C 246.850 138.185, 209.419 174.954, 165.320 219.148 C 79.182 305.471, 82.505 301.748, 84.451 309.743 C 86.861 319.647, 98.246 325.974, 106.316 321.896 C 107.517 321.289, 141.460 287.881, 181.743 247.655 L 254.987 174.518 329.243 248.688 C 394.308 313.677, 403.955 322.941, 407.172 323.526 C 412.406 324.477, 416.611 323.280, 420.723 319.670 C 426.644 314.472, 428.617 306.943, 425.564 301.200 C 423.322 296.982, 263.865 138.227, 260.685 137.046 C 256.892 135.637, 252.137 135.790, 248.500 137.437" stroke="none" fill="black" fill-rule="evenodd"/>
</svg>
